dist/img/maestro.svg

<svg width="33" height="20" viewBox="0 0 33 20" fill="none" xmlns="http://www.w3.org/2000/svg">
<path d="M12.0234 2.14062H20.7734V17.8628H12.0234V2.14062Z" fill="#7673C0"/>
<path d="M12.5799 10C12.5799 6.80556 14.0799 3.97222 16.3854 2.13889C14.691 0.805555 12.5521 0 10.2187 0C4.69097 0 0.21875 4.47222 0.21875 10C0.21875 15.5278 4.69097 20 10.2187 20C12.5521 20 14.691 19.1944 16.3854 17.8611C14.0799 16.0278 12.5799 13.1944 12.5799 10Z" fill="#EB001B"/>
<path d="M32.5812 10C32.5812 15.5278 28.1089 20 22.5812 20C20.2478 20 18.1089 19.1944 16.4145 17.8611C18.7201 16.0278 20.2201 13.1944 20.2201 10C20.2201 6.80556 18.7201 3.97222 16.3867 2.13889C18.1089 0.805555 20.2478 0 22.5812 0C28.1089 0 32.5812 4.47222 32.5812 10Z" fill="#00A1DF"/>
</svg>

<svg width="33" height="20" fill="none" xmlns="http://www.w3.org/2000/svg"><path d="M12.023 2.14h8.75v15.723h-8.75V2.14z" fill="#7673C0"/><path d="M12.58 10c0-3.194 1.5-6.028 3.805-7.861A9.939 9.939 0 0010.22 0c-5.528 0-10 4.472-10 10s4.472 10 10 10a9.939 9.939 0 006.166-2.139A10.027 10.027 0 0112.58 10z" fill="#EB001B"/><path d="M32.581 10c0 5.528-4.472 10-10 10a9.939 9.939 0 01-6.166-2.139A10.026 10.026 0 0020.22 10c0-3.194-1.5-6.028-3.833-7.861C18.109.806 20.247 0 22.58 0c5.528 0 10 4.472 10 10z" fill="#00A1DF"/></svg>
